RestoDelMundo/Paises Bajos/Otras Categorias/Sv Huizen.svg

<svg xmlns="http://www.w3.org/2000/svg" viewBox="0 0 612 792"><path fill="#00a160" d="M116.727 445.748V315.079h119.102V188.613h143.343v126.466h119.101v130.669H590.5v158.418h-566V445.748Z"/><path fill="#fff200" d="M34.384 464.889h546.231v120.138H34.384ZM245.727 207.476h123.544v238.272H245.727ZM126.646 325h108.742v120.421H126.646ZM379.612 325h108.742v120.421H379.612Z"/><path d="M321.08 277.497c.205-4.081-4.708-7.818-15.052-7.964-7.325-.065-12.744 1.661-13.247 5.808-.4 3.464 1.306 4.158 4.611 5.063 1.714 1.246 15.561 2.763 18.363 3.114 4.021.482 12.654 1.73 17.266 4.983 8.43 6.094 4.515 18.067-4.62 22.149-6.214 2.768-14.756 3.452-22.885 3.525-3.713.066-12.541-.834-17.959-3.533-6.521-3.254-9.732-8.234-10.232-13.015l14.649-.001c0 1.317.598 3.397 3.114 5.201 3.308 2.348 8.722 3.113 13.742 2.976 5.021-.069 9.737-1.104 11.648-2.352 3.204-2.078 3.91-6.023.3-8.516-4.817-3.456-19.277-3.458-28.707-5.675-7.927-1.871-14.448-5.814-13.244-13.988 1.209-8.026 9.638-13.976 27.499-13.97 3.918 0 17.565.208 24.693 6.44 3.81 3.39 4.812 8.1 4.216 9.762zM338.76 346.177l-24.797 50.448h-12.942l-24.782-50.46 15.157-.001 16.149 38.074 16.063-38.067ZM152.455 498.933l.002 18.96-29.001-.002V498.93l-15.049-.003-.009 50.45 15.053.002.003-22.832 29.001.003-.009 22.838 15.056-.003.008-50.449ZM247.188 498.954l-.002 34.806c0 4.434-1.612 11.075-13.751 15.158-4.517 1.38-9.835 2.072-14.955 2.069-5.115.003-10.138-.613-14.147-1.661-12.136-4.647-15.15-10.596-15.15-15.574l.004-34.814 15.055.009-.008 34.942c.202 3.182 1.605 8.103 13.853 8.103 11.935 0 14.044-4.916 14.045-8.099l.009-34.945zM267.857 498.958h15.053v50.449h-15.053ZM354.964 498.972l-.003 8.653-37.429 33.139 37.423.008-.006 8.648-54.982-.009.001-8.653 37.346-33.135-37.337-.009-.001-8.649ZM426.722 498.983l-.001 8.655-37.937-.007-.006 11.48 35.02.006v8.654l-35.02-.009v13.018l39.632.001.003 8.651-54.69-.006.008-50.449ZM461.944 498.994l29.593 34.673.012-34.67 15.051.004-.012 50.447h-14.851l-29.592-35.163-.006 35.158-15.066-.001.012-50.447Z"/></svg>

<svg enable-background="new 0 0 612 792" viewBox="0 0 612 792" xmlns="http://www.w3.org/2000/svg"><path d="M 116.727 445.748 L 116.727 315.079 L 235.829 315.079 L 235.829 188.613 L 379.172 188.613 L 379.172 315.079 L 498.273 315.079 L 498.273 445.748 L 590.5 445.748 L 590.5 604.166 L 24.5 604.166 L 24.5 445.748 Z" fill="#00a160"/><path d="M 34.384 464.889 H 580.615 V 585.027 H 34.384 Z" fill="#fff200"/><path d="M 245.727 207.476 H 369.271 V 445.748 H 245.727 Z" fill="#fff200"/><path d="M 126.646 325 H 235.388 V 445.421 H 126.646 Z" fill="#fff200"/><path d="M 379.612 325 H 488.354 V 445.421 H 379.612 Z" fill="#fff200"/><path d="M 321.08 277.497 c .205 -4.081 -4.708 -7.818 -15.052 -7.964 c -7.325 -.065 -12.744 1.661 -13.247 5.808 c -.4 3.464 1.306 4.158 4.611 5.063 c 1.714 1.246 15.561 2.763 18.363 3.114 c 4.021 .482 12.654 1.73 17.266 4.983 c 8.43 6.094 4.515 18.067 -4.62 22.149 c -6.214 2.768 -14.756 3.452 -22.885 3.525 c -3.713 .066 -12.541 -.834 -17.959 -3.533 c -6.521 -3.254 -9.732 -8.234 -10.232 -13.015 l 14.649 -.001 c 0 1.317 .598 3.397 3.114 5.201 c 3.308 2.348 8.722 3.113 13.742 2.976 c 5.021 -.069 9.737 -1.104 11.648 -2.352 c 3.204 -2.078 3.91 -6.023 .3 -8.516 c -4.817 -3.456 -19.277 -3.458 -28.707 -5.675 c -7.927 -1.871 -14.448 -5.814 -13.244 -13.988 c 1.209 -8.026 9.638 -13.976 27.499 -13.97 c 3.918 0 17.565 .208 24.693 6.44 c 3.81 3.39 4.812 8.1 4.216 9.762 L 321.08 277.497"/><path d="M 338.76 346.177 L 313.963 396.625 L 301.021 396.625 L 276.239 346.165 L 291.396 346.164 L 307.545 384.238 L 323.608 346.171 Z"/><path d="M 152.455 498.933 L 152.457 517.893 L 123.456 517.891 L 123.456 498.93 L 108.407 498.927 L 108.398 549.377 L 123.451 549.379 L 123.454 526.547 L 152.455 526.55 L 152.446 549.388 L 167.502 549.385 L 167.51 498.936 Z"/><path d="M 247.188 498.954 l -.002 34.806 c 0 4.434 -1.612 11.075 -13.751 15.158 c -4.517 1.38 -9.835 2.072 -14.955 2.069 c -5.115 .003 -10.138 -.613 -14.147 -1.661 c -12.136 -4.647 -15.15 -10.596 -15.15 -15.574 l .004 -34.814 l 15.055 .009 l -.008 34.942 c .202 3.182 1.605 8.103 13.853 8.103 c 11.935 0 14.044 -4.916 14.045 -8.099 l .009 -34.945 L 247.188 498.954"/><path d="M 267.857 498.958 H 282.91 V 549.407 H 267.857 Z"/><path d="M 354.964 498.972 L 354.961 507.625 L 317.532 540.764 L 354.955 540.772 L 354.949 549.42 L 299.967 549.411 L 299.968 540.758 L 337.314 507.623 L 299.977 507.614 L 299.976 498.965 Z"/><path d="M 426.722 498.983 L 426.721 507.638 L 388.784 507.631 L 388.778 519.111 L 423.798 519.117 L 423.798 527.771 L 388.778 527.762 L 388.778 540.78 L 428.41 540.781 L 428.413 549.432 L 373.723 549.426 L 373.731 498.977 Z"/><path d="M 461.944 498.994 L 491.537 533.667 L 491.549 498.997 L 506.6 499.001 L 506.588 549.448 L 491.737 549.448 L 462.145 514.285 L 462.139 549.443 L 447.073 549.442 L 447.085 498.995 Z"/></svg>
